X:1
T:Home Ties
T:Home Ties
T:H. A. Severinghaus
T:James Gray Garth, 1920
T:Public Domain Courtesy of the Cyber Hymnal™
T:Public Domain Courtesy of the Cyber Hymnal™
C:H. A. Severinghaus
Z:Public Domain
Z:Courtesy of the Cyber Hymnal™
%%score ( 1 2 ) ( 3 4 )
L:1/8
Q:1/4=110
M:6/4
K:Eb
V:1 treble 
V:2 treble 
V:3 bass 
V:4 bass 
V:1
 E>[EF] | [EG]2 [EG]2 [FA]2 [EB]4 E>[EF] | [EG]2 [DA]2 [B,D]2 [B,E]4 [_DE]2 | %3
w: 1.~Oh, the|home ties are sweet, And the|home ties are strong, And|
w: 2.~We have|wan- dered a- far, In the|paths we have trod, From|
w: 3.~Are you|sa- tis- fied now With the|plea- sures of sin? Does|
 [CE]2 [EA]2 [EB]2 [Ec]2 [EB]2 ([EG][EG]) | [DF]2 [E=A]2 [EF]2 [DB]4 [DB]>[F_A] | %5
w: pre- cious in mem- ory No *|mat- ter how long Be the|
w: mo- ther’s re- li- gion And~the *|ways of her God, But the|
w: no thought of Je- sus Nor *|Heav’n en- ter in? Oh, be|
 [EG]2 [EG]2 [EG]2 [EG]2 [EG]2 [=Ec]>[EB] [FA]2 [FA]2 [FA]2 [FA]4 [Ad]>[Ac] | %6
w: time since we part- ed From the old home back there, From the|
w: voice of that mo- ther, Of the fa- ther so dear, Now is|
w: true now to mo- ther, Turn to Je- sus her Lord; Take Him|
 [AB]2 [Ac]2 [Ad]2 [Ge]2 [Ge]2 [GB]>[FA] | [EG]2 [DA]2 [B,D]2 [B,E]4 ||"^Refrain" [GB]>[GB] | %9
w: fa- ther and mo- ther And their|kind lov- ing care.||
w: call- ing us heav’n- ward, If we|on- ly will hear.|Oh, the|
w: as your own Sav- ior, And be-|lieve in His Word.||
 [GB]2 [EG]2 [FA]2 [GB]4!pp! [GB]>[GB] | [GB]2 [EG]2 [FA]2 [GB]4 [GB]>[GB] | %11
w: ||
w: home ties are sweet, Yes, the|home ties are strong, Let us|
w: ||
 [Ac]2 [Ec]2 [^Fc]2 [GB]2 [EG]2 [EG]2 | [DF]2 [E=A]2 [EF]2 [DB]4 [DB]>[D_A] | %13
w: ||
w: keep them un- bro- ken, Be|time short or long; Keep the|
w: ||
 [EG]2 [EG]2 [EG]2 [EG]2 [EG]2 [=Ec]>[EB] [FA]2 [FA]2 [FA]2 [FA]4 [Ad]>[Ac] | %14
w: |
w: home ties in Je- sus Who has gone to pre- pare For the|
w: |
 [AB]2 [Ac]2 [Ad]2 [Ge]2 [Ge]2 [GB]>[FA] | [EG]2 [DA]2 [B,D]2 [B,E]4 |] %16
w: ||
w: home up in Hea- ven, Let us|all meet up there.|
w: ||
V:2
 E3/2 x/ | x10 E3/2 x/ | x12 | x12 | x12 | x24 | x12 | x10 || x2 | x12 | x12 | x12 | x12 | x24 | %14
 x12 | x10 |] %16
V:3
 [E,G,]>[E,A,] | [E,B,]2 [E,B,]2 [E,B,]2 [E,G,]4 [C,G,]>[_C,=A,] | %2
 [B,,B,]2 [B,,F,]2 [B,,A,]2 [E,G,]4 [E,G,]2 | [A,,A,]2 [C,A,]2 [E,G,]2 A,2 [E,G,]2 ([E,B,][E,B,]) | %4
 [F,B,]2 [F,C]2 (=A,F,) [B,,F,]4 [B,,B,]>[D,B,] | %5
 [E,B,]2 [G,B,]2 C2 [B,E]2 [E,B,]2 [C,B,]>[C,C] [F,C]2 [A,C]2 D2 [CF]4 [B,,F]>[B,,E] | %6
 [B,,D]2 [B,,D]2 (DB,) [E,B,]2 [C,C]2 [G,,E]>[A,,C] | [B,,B,]2 [B,,F,]2 [B,,A,]2 [E,G,]4 || %8
 [E,E]>[E,E] | [E,E]2 [E,B,]2 [E,B,]2 [E,E]4 [E,E]>[E,E] | %10
 [E,E]2 [E,B,]2 [E,B,]2 [E,E]4 [E,E]>[E,E] | [A,E]2 [A,E]2 [=A,E]2 [B,E]2 B,2 [E,B,]2 | %12
 [F,B,]2 [F,C]2 (=A,F,) [B,,F,]4 [B,,B,]>[B,,B,] | %13
 [E,B,]2 [G,B,]2 C2 [B,E]2 [E,B,]2 [C,B,]>[C,C] [F,C]2 [A,C]2 D2 [CF]4 [B,,F]>[B,,E] | %14
 [B,,D]2 [B,,D]2 (DB,) [E,B,]2 [C,C]2 [G,,E]>[A,,C] | [B,,B,]2 [B,,F,]2 [B,,A,]2 [E,G,]4 |] %16
V:4
 x2 | x12 | x12 | x6 A,2 x4 | x4 F,2 x6 | x4 C2 x8 D2 x8 | x4 B,2 x6 | x10 || x2 | x12 | x12 | %11
 x8 B,2 x2 | x4 F,2 x6 | x4 C2 x8 D2 x8 | x4 B,2 x6 | x10 |] %16

